22x22/apps/net.kuribo64.melonDS.svg

<svg xmlns="http://www.w3.org/2000/svg" width="22" height="22" version="1.1">
 <path style="opacity:0.2" d="M 1.7528523,8.9380811 9.4380811,1.2528524 c 1.0038029,-1.0038031 2.6200349,-1.0038031 3.6238379,0 l 7.685228,7.6852283 c 1.003803,1.0038033 1.003803,2.6200353 0,3.6238383 l -7.685228,7.685228 c -1.003804,1.003804 -2.620035,1.003804 -3.6238379,0 L 1.7528523,12.561919 c -1.00380308,-1.003803 -1.00380308,-2.620035 0,-3.6238379 z"/>
 <path style="fill:#519b31" d="M 1.7528523,8.4380802 9.4380811,0.7528519 c 1.0038029,-1.0038031 2.6200339,-1.0038031 3.6238379,0 l 7.685228,7.6852287 c 1.003803,1.0038034 1.003803,2.6200344 0,3.6238384 l -7.685228,7.685228 c -1.003803,1.003803 -2.620035,1.003803 -3.6238379,0 L 1.7528523,12.061918 c -1.00380308,-1.003803 -1.00380308,-2.620035 0,-3.6238378 z"/>
 <rect style="opacity:0.2" width="13.214" height="13.214" x="-6.25" y="8.95" rx="2.646" ry="2.646" transform="rotate(-45)"/>
 <rect style="fill:#ffe8b6" width="13.214" height="13.214" x="-5.9" y="8.6" rx="2.646" ry="2.646" transform="rotate(-45)"/>
 <rect style="fill:#d0273d" width="11.312" height="11.312" x="-4.95" y="9.55" rx="1.812" ry="1.812" transform="rotate(-45)"/>
 <rect style="opacity:0.2" width="7.75" height="4.743" x="-3.52" y="15.66" rx="1.008" ry="1.008" transform="rotate(-45)"/>
 <rect style="opacity:0.2" width="7.75" height="4.743" x="-3.52" y="10.71" rx="1.008" ry="1.008" transform="rotate(-45)"/>
 <rect style="fill:#ff5b54" width="7.75" height="4.743" x="-3.17" y="10.36" rx="1.008" ry="1.008" transform="rotate(-45)"/>
 <rect style="fill:#ff5b54" width="7.75" height="4.743" x="-3.17" y="15.31" rx="1.008" ry="1.008" transform="rotate(-45)"/>
 <rect style="fill:#17191e" width="4.843" height="2.964" x="-1.72" y="11.25" rx=".63" ry=".63" transform="rotate(-45)"/>
 <rect style="fill:#17191e" width="1.515" height="1.515" x="-2.88" y="16.92" rx=".173" ry=".173" transform="rotate(-45)"/>
 <rect style="fill:#17191e" width="1.515" height="1.515" x="2.78" y="16.92" rx=".173" ry=".173" transform="rotate(-45)"/>
 <path style="opacity:0.2;fill:#f4f4f7" d="m 10.563476,4.5000001 c -0.25772,0 -0.515412,0.09842 -0.7128899,0.2958985 L 5.7958985,8.850586 C 5.533772,9.112712 5.4503215,9.479957 5.536133,9.813476 5.579593,9.644364 5.6629945,9.48349 5.7958985,9.350586 L 9.8505861,5.2958986 c 0.3949569,-0.3949575 1.0308239,-0.3949575 1.4257809,0 l 1.927734,1.9277344 c 0.132831,0.1328305 0.216282,0.2938815 0.259766,0.4628905 0.08569,-0.333446 0.0023,-0.7008375 -0.259766,-0.9628905 L 11.276367,4.7958986 C 11.078888,4.5984201 10.821197,4.5000001 10.563476,4.5000001 Z"/>
 <path style="opacity:0.2;fill:#f4f4f7" d="m 14.063476,8 c -0.25772,0 -0.515412,0.09842 -0.71289,0.2958985 L 9.2958981,12.350586 c -0.262126,0.262126 -0.3455767,0.629371 -0.259765,0.96289 0.04346,-0.169112 0.126861,-0.329986 0.259765,-0.46289 L 13.350586,8.7958985 c 0.394957,-0.3949575 1.030824,-0.3949575 1.425781,0 l 1.927734,1.9277345 c 0.132831,0.13283 0.216282,0.293881 0.259766,0.46289 0.08569,-0.333446 0.0023,-0.700837 -0.259766,-0.96289 L 14.776367,8.2958985 C 14.578888,8.09842 14.321197,8 14.063476,8 Z"/>
 <path style="opacity:0.2;fill:#f4f4f7" d="M 11.25,2.0000001e-7 C 10.594991,2.0000001e-7 9.9403781,0.2510283 9.4384761,0.7529299 L 1.7529297,8.4384765 C 1.1869017,9.004504 0.95209453,9.764121 1.0244141,10.5 1.0803473,9.930859 1.3151546,9.376251 1.7529297,8.9384765 L 9.4384761,1.2529298 c 1.0038039,-1.0038031 2.6192439,-1.0038031 3.6230469,0 L 20.74707,8.9384765 C 21.184845,9.376251 21.419653,9.930859 21.475586,10.5 21.547905,9.764121 21.313098,9.004504 20.74707,8.4384765 L 13.061523,0.7529299 C 12.559622,0.2510283 11.905009,2.0000001e-7 11.25,2.0000001e-7 Z"/>
 <path style="opacity:0.2;fill:#f4f4f7" d="m 11.25,2.0000001 c -0.676495,0 -1.3527289,0.2589787 -1.8710939,0.7773438 L 3.7773438,8.378906 C 3.1948039,8.961446 2.9522943,9.742477 3.0244141,10.5 3.0806439,9.90938 3.3231535,9.333096 3.7773438,8.878906 L 9.3789061,3.2773439 c 1.0367299,-1.0367301 2.7054569,-1.0367301 3.7421879,0 l 5.601562,5.6015621 c 0.45419,0.45419 0.6967,1.030474 0.75293,1.621094 0.07212,-0.757523 -0.17039,-1.538554 -0.75293,-2.121094 L 13.121094,2.7773439 C 12.602728,2.2589788 11.926494,2.0000001 11.25,2.0000001 Z"/>
</svg>

<svg xmlns="http://www.w3.org/2000/svg" width="22" height="22"><path style="opacity:.2" d="m1.753 8.938 7.685-7.685a2.557 2.557 0 0 1 3.624 0l7.685 7.685a2.557 2.557 0 0 1 0 3.624l-7.685 7.685a2.557 2.557 0 0 1-3.624 0l-7.685-7.685a2.557 2.557 0 0 1 0-3.624z"/><path style="fill:#519b31" d="M1.753 8.438 9.438.753a2.557 2.557 0 0 1 3.624 0l7.685 7.685a2.557 2.557 0 0 1 0 3.624l-7.685 7.685a2.557 2.557 0 0 1-3.624 0l-7.685-7.685a2.557 2.557 0 0 1 0-3.624z"/><rect style="opacity:.2" width="13.214" height="13.214" x="-6.25" y="8.95" rx="2.646" ry="2.646" transform="rotate(-45)"/><rect style="fill:#ffe8b6" width="13.214" height="13.214" x="-5.9" y="8.6" rx="2.646" ry="2.646" transform="rotate(-45)"/><rect style="fill:#d0273d" width="11.312" height="11.312" x="-4.95" y="9.55" rx="1.812" ry="1.812" transform="rotate(-45)"/><rect style="opacity:.2" width="7.75" height="4.743" x="-3.52" y="15.66" rx="1.008" ry="1.008" transform="rotate(-45)"/><rect style="opacity:.2" width="7.75" height="4.743" x="-3.52" y="10.71" rx="1.008" ry="1.008" transform="rotate(-45)"/><rect style="fill:#ff5b54" width="7.75" height="4.743" x="-3.17" y="10.36" rx="1.008" ry="1.008" transform="rotate(-45)"/><rect style="fill:#ff5b54" width="7.75" height="4.743" x="-3.17" y="15.31" rx="1.008" ry="1.008" transform="rotate(-45)"/><rect style="fill:#17191e" width="4.843" height="2.964" x="-1.72" y="11.25" rx=".63" ry=".63" transform="rotate(-45)"/><rect style="fill:#17191e" width="1.515" height="1.515" x="-2.88" y="16.92" rx=".173" ry=".173" transform="rotate(-45)"/><rect style="fill:#17191e" width="1.515" height="1.515" x="2.78" y="16.92" rx=".173" ry=".173" transform="rotate(-45)"/><path style="opacity:.2;fill:#f4f4f7" d="M10.563 4.5c-.257 0-.515.098-.712.296L5.796 8.85c-.262.262-.346.629-.26.962a.999.999 0 0 1 .26-.462L9.85 5.296a1.006 1.006 0 0 1 1.425 0l1.928 1.928a1 1 0 0 1 .26.463c.086-.334.002-.701-.26-.963l-1.928-1.928a1.005 1.005 0 0 0-.713-.296zM14.063 8c-.257 0-.515.098-.712.296L9.296 12.35c-.262.262-.346.629-.26.962a.999.999 0 0 1 .26-.462l4.055-4.055a1.006 1.006 0 0 1 1.425 0l1.928 1.928a1 1 0 0 1 .26.463c.086-.334.002-.701-.26-.963l-1.928-1.928A1.005 1.005 0 0 0 14.063 8z"/><path style="opacity:.2;fill:#f4f4f7" d="M11.25 0c-.655 0-1.31.251-1.812.753L1.753 8.438a2.543 2.543 0 0 0-.729 2.062c.056-.57.291-1.124.729-1.562l7.685-7.685a2.556 2.556 0 0 1 3.624 0l7.685 7.685c.438.438.673.993.729 1.562a2.543 2.543 0 0 0-.729-2.062L13.062.753A2.554 2.554 0 0 0 11.25 0z"/><path style="opacity:.2;fill:#f4f4f7" d="M11.25 2c-.676 0-1.353.259-1.871.777L3.777 8.38a2.626 2.626 0 0 0-.753 2.121c.057-.59.3-1.167.753-1.621L9.38 3.277a2.64 2.64 0 0 1 3.742 0l5.602 5.602c.454.454.696 1.03.753 1.621a2.626 2.626 0 0 0-.753-2.121L13.12 2.777A2.637 2.637 0 0 0 11.25 2z"/></svg>
